packages/ui-icons/svg/Line/closed-captioning-off.svg

<svg viewBox="0 0 1920 1920" version="1.1" xmlns="http://www.w3.org/2000/svg">
    <path d="M1264.8398,456.278941 C1295.85311,650.740726 1465.16897,799.939855 1668.85093,799.939855 C1671.36552,799.939855 1673.88011,799.939855 1676.3947,799.101658 L1676.3947,799.101658 L1676.3947,1629.75523 C1676.3947,1721.95694 1600.95694,1797.3947 1508.75523,1797.3947 L1508.75523,1797.3947 L167.63947,1797.3947 C75.4377617,1797.3947 0,1721.95694 0,1629.75523 L0,1629.75523 L0,623.918411 C0,531.716702 75.4377617,456.278941 167.63947,456.278941 L167.63947,456.278941 Z M754.377617,783.242964 L502.918411,783.242964 C364.615848,783.242964 251.459206,896.399606 251.459206,1034.70217 L251.459206,1034.70217 L251.459206,1202.34164 C251.459206,1340.6442 364.615848,1453.80085 502.918411,1453.80085 L502.918411,1453.80085 L754.377617,1453.80085 L754.377617,1286.16137 L502.918411,1286.16137 C456.817557,1286.16137 419.098676,1248.44249 419.098676,1202.34164 L419.098676,1202.34164 L419.098676,1034.70217 C419.098676,988.601315 456.817557,950.882434 502.918411,950.882434 L502.918411,950.882434 L754.377617,950.882434 L754.377617,783.242964 Z M1424.9355,783.242964 L1173.47629,783.242964 C1035.17373,783.242964 922.017087,896.399606 922.017087,1034.70217 L922.017087,1034.70217 L922.017087,1202.34164 C922.017087,1340.6442 1035.17373,1453.80085 1173.47629,1453.80085 L1173.47629,1453.80085 L1424.9355,1453.80085 L1424.9355,1286.16137 L1173.47629,1286.16137 C1127.37544,1286.16137 1089.65656,1248.44249 1089.65656,1202.34164 L1089.65656,1202.34164 L1089.65656,1034.70217 C1089.65656,988.601315 1127.37544,950.882434 1173.47629,950.882434 L1173.47629,950.882434 L1424.9355,950.882434 L1424.9355,783.242964 Z M1822.68529,121 L1920,219.320549 L1762.25126,378.661866 L1920,538.087002 L1822.68529,636.323732 L1664.93655,476.982415 L1507.10398,636.323732 L1409.78927,538.087002 L1567.62183,378.661866 L1409.78927,219.320549 L1507.10398,121 L1664.93655,280.425136 L1822.68529,121 Z" stroke="none" stroke-width="1" fill-rule="evenodd"/>
</svg>

<svg viewBox="0 0 1920 1920" xmlns="http://www.w3.org/2000/svg">
    <path d="M1264.84 456.279c31.013 194.462 200.329 343.66 404.01 343.66 2.516 0 5.03 0 7.545-.837v830.653c0 92.202-75.438 167.64-167.64 167.64H167.64c-92.202 0-167.64-75.438-167.64-167.64V623.918c0-92.201 75.438-167.64 167.64-167.64ZM754.378 783.243h-251.46c-138.302 0-251.459 113.157-251.459 251.46v167.639c0 138.302 113.157 251.459 251.46 251.459h251.459v-167.64h-251.46c-46.1 0-83.82-37.719-83.82-83.82v-167.639c0-46.1 37.72-83.82 83.82-83.82h251.46V783.243Zm670.558 0h-251.46c-138.302 0-251.459 113.157-251.459 251.46v167.639c0 138.302 113.157 251.459 251.46 251.459h251.458v-167.64h-251.459c-46.1 0-83.82-37.719-83.82-83.82v-167.639c0-46.1 37.72-83.82 83.82-83.82h251.46V783.243ZM1822.686 121 1920 219.32l-157.749 159.342L1920 538.087l-97.315 98.237-157.748-159.342-157.833 159.342-97.315-98.237 157.833-159.425-157.833-159.341L1507.104 121l157.833 159.425L1822.685 121Z" fill-rule="evenodd"/>
</svg>
